img/arrow-9.svg

<svg fill="none" height="14" viewBox="0 0 16 14" width="16" xmlns="http://www.w3.org/2000/svg"><path d="m15.1447 7.59866c.3306-.33063.3306-.86669 0-1.19732l-5.38793-5.3879c-.33063-.330628-.86668-.330628-1.19731 0-.33063.33063-.33063.86668 0 1.19731l4.78924 4.78925-4.78924 4.7892c-.33063.3307-.33063.8667 0 1.1974.33063.3306.86668.3306 1.19731 0zm-14.144717-1.44529c-.46758 0-.846627.37905-.846627.84663s.379047.84663.846627.84663zm13.546017 0h-13.546017v1.69326h13.546017z" fill="#000"/></svg>

<svg width="16" height="14" viewBox="0 0 16 14" fill="none" xmlns="http://www.w3.org/2000/svg">
<path d="M15.1447 7.59866C15.4753 7.26803 15.4753 6.73197 15.1447 6.40134L9.75677 1.01344C9.42614 0.682812 8.89009 0.682812 8.55946 1.01344C8.22883 1.34407 8.22883 1.88012 8.55946 2.21075L13.3487 7L8.55946 11.7892C8.22883 12.1199 8.22883 12.6559 8.55946 12.9866C8.89009 13.3172 9.42614 13.3172 9.75677 12.9866L15.1447 7.59866ZM0.999983 6.15337C0.532403 6.15337 0.153356 6.53242 0.153356 7C0.153356 7.46758 0.532403 7.84663 0.999983 7.84663V6.15337ZM14.546 6.15337L0.999983 6.15337V7.84663L14.546 7.84663V6.15337Z" fill="black"/>
</svg>
